X:1
T:Częstochowa, 88.88.88
T:Częstochowa, 88.88.88
T:German
T:Public Domain Courtesy of the Cyber Hymnal™
C:German
Z:Public Domain
Z:Courtesy of the Cyber Hymnal™
%%score ( 1 2 ) ( 3 4 )
L:1/8
Q:1/4=115
M:3/4
K:Eb
V:1 treble 
V:2 treble 
V:3 bass 
V:4 bass 
V:1
 [B,E]2 [CE]2 [DB]2 | [EG]4 [EG]2 | [DF]4 [EA]2 | [EG]6 | [Ec]2 [FA]2 [B,G]2 | [B,F]4 [DB]2 | %6
 ([Gc]2 [DB]2) [Fc]2 | [DB]6 | [EG]2 [FB]2 [EA]2 | [EG]4 [EA]2 | [EF]4 [_DF]2 | [CE]6 | %12
 E2 E2 [GB]2 | B4 [Ac]2 | [GB]4 [F=A]2 | [FB]4 [Ee]2 | (d3 c) B2 | e4 [GB]2 | [FB]4 [EA]2 | [EG]6 | %20
 [CE]2 [_DF]2 [EA]2 | [EG]4 [G,E]2 | [B,E]4 [B,D]2 | [B,E]6 |] %24
V:2
 x6 | x6 | x6 | x6 | x6 | x6 | x6 | x6 | x6 | x6 | x6 | x6 | E2 E2 x2 | (F2 G2) x2 | x6 | x6 | %16
 F4 B2 | (B2 A2) x2 | x6 | x6 | x6 | x6 | x6 | x6 |] %24
V:3
 [E,G,]2 [A,,A,]2 [G,,B,]2 | [C,C]4 [E,B,]2 | [B,,B,]4 [C,A,]2 | [E,B,]6 | [A,C]2 (CD) [G,E]2 | %5
 [B,D]4 [G,B,]2 | ([E,G,]2 [G,B,]2) [F,=A,]2 | [B,,B,]6 | [E,B,]2 (F,G,) [C,A,]2 | %9
 [E,B,]4 [A,,C]2 | [_D,A,]4 [F,A,]2 | A,6 | [A,C]2 [G,B,]2 [E,E]2 | [B,D]4 [A,E]2 | %14
 (E2 D2) [F,C]2 | [B,,D]4 [G,B,]2 | B,3 [A,C] [G,D]2 | [C,E]4 [E,E]2 | [B,,D]4 [C,C]2 | [E,B,]6 | %20
 [A,,A,]2 [_D,A,]2 [A,,C]2 | [E,B,]4 [C,C]2 | [B,,F,]4 [B,,F,]2 | [E,G,]6 |] %24
V:4
 x6 | x6 | x6 | x6 | x2 F,2 x2 | x6 | x6 | x6 | x2 D,2 x2 | x6 | x6 | A,6 | x6 | x6 | E,4 x2 | x6 | %16
 B,3 x3 | x6 | x6 | x6 | x6 | x6 | x6 | x6 |] %24

